X: 1880
T: Tâhir Aranağme (Düyek)
C: ?
O: Turkey
F: http://compmusic.upf.edu/node/140
N: tahir--aranagme--duyek--1--
N: makam= tahir
N: form= aranagme
N: usul= duyek = 8/4
M: 8/4
L: 1/16
K: C _2/4B ^3/4f  
Q: 1/4=144
%%MIDI tuningsystem comma53
a4 f2 g2 .a4 .a4  | c'b a4 z2 c'b a2 g2 f2  | \
w:  ARANAĞME  |   | 
e2 d2 B2 c2 d4 d4  | d2 e2 c2 e2 d4 de fg  | 
w:   |   | 
a4 f2 g2 a4 a4  | g2 f2 e2 d2 d2 _7/8ed cB c2  | \
w:   |   | 
Bc dc dB c2 Bc dc dB c2  | 
w:   | 
c4 B2 c2 c2 B4 A2  | c2 B4 A2 A4 de fg  | \
w:   |   | 
a4 f2 g2 .a4 .a4  | c'b a4 z2 c'b a2 g2 f2  | 
w:  ARANAĞME  |   | 
e2 d2 B2 c2 d4 d4  | d2 e2 c2 e2 d4 de fg  | \
w:   |   | 
a4 f2 g2 a4 a4  | g2 f2 e2 d2 d2 _7/8ed cB c2  | 
w:   |   | 
Bc dc dB c2 Bc dc dB c2  | c4 B2 c2 c2 B4 A2  | \
w:   |   | 
c2 B4 A2 A4 z4  | 
w:   | 
|


